!!!!SEGMENT: pl-kk--kk-i-69--009_anonim--protexisti-pro-festo-agnus-dei.krn
!!!id: 17xx:2290
!!!COM: Anonim
!!!COM-rism: pe30004985
!!!CDT:
!!!CNT:
!!!OTL: Protexisti pro festo – Agnus Dei
!!!PDT:
!!!SMS-siglum: PL-Kk
!!!SMS-shelfmark: Kk.I.69
!!!NIFC-rismID: 1001154789
!!!URL-scan: http://repozytorium.nifc.pl/skany/pl-kk-nut--i-69
!!!ONB-nifc: UWAGA: części Mszy: 1. Protexisti me, 2. Kyrie, 3. Et in terra, 4. Alleluia, 5. Patrem, 6. Posuisti Domine, 7. Sanctus, 8. Benedictus, 9. Agnus Dei, 10. Dona nobis, 11. Deo gratias
!!!SMS-variant:
!!!SMS-altvar:
**kern	**text	**kern	**text	**kern	**text
*part3	*part3	*part2	*part2	*part1	*part1
*staff3	*staff3	*staff2	*staff2	*staff1	*staff1
*I"Baſso	*	*I"Tenore Secundo	*	*I"Tenore Primo	*
*I'B	*	*I'T 2	*	*I'T 1	*
*clefF4	*	*clefC4	*	*clefC4	*
*k[]	*	*k[]	*	*k[]	*
*M2/2	*	*M2/2	*	*M2/2	*
*met(c|)	*	*met(c|)	*	*met(c|)	*
*2\right	*	*2\right	*	*2\right	*
=1	=1	=1	=1	=1	=1
!	!	!LO:TX:t=P:problem:2\right:global	!	!LO:TX:t=P:problem:2\right:global	!
2C/	A-	2e\	A-	2g\	A-
!LO:TX:t=P:problem:2\right:global	!	!	!	!	!
2G\	-gnus	2d\	-gnus	2f\	-gnus
=2	=2	=2	=2	=2	=2
2c\	De-	2c\	De-	2e\	De-
4G\	-i	4B\	-i	4d\	-i
4F\	qui	4B\	qui	4d\	qui
=3	=3	=3	=3	=3	=3
4E/	tol-	4c\	tol-	4e\	tol-
4D/	.	4d\	.	4f\	.
2C/	-lis	2e\	-lis	2g\	-lis
=4	=4	=4	=4	=4	=4
4r	.	4r	.	4r	.
4F\	pec-	4d\	pec-	4f\	pec-
4F\	-ca-	4d\	-ca-	4f\	-ca-
4F#X\	-ta	4c\	-ta	4e\	-ta
=5	=5	=5	=5	=5	=5
2G\	mun-	2c\	mun-	2e\	mun-
2G\	-di	2B\	-di	2d\	-di
=6	=6	=6	=6	=6	=6
!	!	!	!	!LO:LB:g=original	!
2G\	mi-	4d\	mi-	4f\	mi-
.	.	4c\	.	4e\	.
2G\	-se-	4B\	-se-	4d\	.
.	.	4d\	.	4f\	-se-
=7	=7	=7	=7	=7	=7
!LO:LB:g=original	!	!LO:LB:g=original	!	!	!
4c\	-re-	4c\	-re-	4e\	-re-
4G\	.	4d\	.	4f\	.
4E\	-re	2e\	-re	2g\	-re
4C/	.	.	.	.	.
=8	=8	=8	=8	=8	=8
4F\	mi-	4f\	mi-	4a\	mi-
4F\	-se-	4e\	-se-	4g\	-se-
4F\	-re-	4d\	-re-	4f\	-re-
4F#X\	-re	4c\	-re	4e\	-re
=9	=9	=9	=9	=9	=9
4G\	no-	2B\	no-	2d\	no-
4Fn\	.	.	.	.	.
4E\	.	2c\	.	2e\	.
4F\	.	.	.	.	.
=10	=10	=10	=10	=10	=10
1G	.	2c\	.	1d	.
.	.	2B\	.	.	.
=11	=11	=11	=11	=11	=11
1C	-bis	1G	-bis	1e	-bis
=12||	=12||	=12||	=12||	=12||	=12||
*M3/2	*	*M3/2	*	*M3/2	*
!LO:LB:g=original	!	!LO:LB:g=original	!	!LO:LB:g=original	!
2C/	A-	1G	A-	1e	A-
2E\	.	.	.	.	.
2G\	-gnus	2B\	-gnus	2d\	-gnus
=13	=13	=13	=13	=13	=13
2G\	De-	1d	De-	1f	De-
2B\	.	.	.	.	.
2c\	-i	2G/	-i	2e\	-i
=14	=14	=14	=14	=14	=14
2C/	De-	2G/	De-	2e\	De-
2C/	-i	2G/	-i	2e\	-i
2E/	qui	2c\	qui	2g\	qui
=15	=15	=15	=15	=15	=15
2D/	tol-	2B\	tol-	2f\	tol-
2C/	-lis	2G/	-lis	2e\	-lis
2C/	pec-	2G/	pec-	2e\	pec-
=16	=16	=16	=16	=16	=16
1.G	-ca-	2c\	-ca-	2e\	-ca-
.	.	4B\	.	4d\	.
.	.	4c\	.	4e\	.
.	.	2d\	.	2f\	.
=17	=17	=17	=17	=17	=17
!	!	!LO:LB:g=original	!	!LO:LB:g=original	!
2C/	.	2d\	.	2f\	.
2E/	.	4c\	.	4e\	.
.	.	4d\	.	4f\	.
2C/	-ta	2e\	-ta	2g\	-ta
=18	=18	=18	=18	=18	=18
!LO:LB:g=original	!	!	!	!	!
2C/	mun-	2e\	mun-	2g\	mun-
2F\	.	2d\	.	2f\	.
2F#X\	.	2c\	.	2e\	.
=19	=19	=19	=19	=19	=19
1G	-di	1B	-di	1d	-di
2r	.	2r	.	2r	.
=20	=20	=20	=20	=20	=20
2G\	mi-	4B\	mi-	4d\	mi-
.	.	4c\	.	4e\	.
2B\	.	2d\	.	2f\	.
2c\	-se-	2G/	-se-	2e\	-se-
=21	=21	=21	=21	=21	=21
1G	-re-	2B\	-re-	2d\	-re-
.	.	2d\	.	2f\	.
2C/	-re	2c\	-re	2e\	-re
=22	=22	=22	=22	=22	=22
!	!	!LO:LB:g=original	!	!	!
2F\	no-	2A\	no-	2f\	no-
1G	.	2c\	.	2e\	.
.	.	2B\	.	2d\	.
=23	=23	=23	=23	=23	=23
1C	-bis	1G	-bis	1e	-bis
2r	.	2r	.	2r	.
=24	=24	=24	=24	=24	=24
2G\	mi-	2B\	mi-	2d\	mi-
2B\	.	2d\	.	2f\	.
2c\	-se-	2c\	-se-	2e\	-se-
=25	=25	=25	=25	=25	=25
!LO:LB:g=original	!	!	!	!	!
2B\	-re-	1d	-re-	1f	-re-
2G\	.	.	.	.	.
2c\	-re	2c\	-re	2e\	-re
=26	=26	=26	=26	=26	=26
2F\	no-	2A\	no-	2d\	no-
1G	.	2c\	.	2e\	.
.	.	2B\	.	2d\	.
=27	=27	=27	=27	=27	=27
1C	-bis	1c	-bis	1.e	-bis
2r	.	2r	.	.	.
=28||	=28||	=28||	=28||	=28||	=28||
*M2/2	*	*M2/2	*	*M2/2	*
*met(c|)	*	*met(c|)	*	*met(c|)	*
!LO:LB:g=original	!	!LO:LB:g=original	!	!LO:PB:g=original	!
2C/	A-	2e\	A-	2g\	A-
4D/	.	4d\	.	4f\	.
4E/	-gnus	4c\	-gnus	4e\	-gnus
=29	=29	=29	=29	=29	=29
2G\	De-	2d\	De-	2f\	De-
4G\	-i	4c\	-i	4e\	-i
4F\	qu	4B\	qui	4d\	qui
=30	=30	=30	=30	=30	=30
4E\	tol-	4c\	tol-	4e\	tol-
4D\	.	4d\	.	4f\	.
2C/	-lis	2e\	-lis	2g\	-lis
=31	=31	=31	=31	=31	=31
4r	.	4r	.	4r	.
4F\	pec-	4d\	pec-	4f\	pec-
4F\	-ca-	4d\	-ca-	4f\	-ca-
4F#X\	-ta	4c\	-ta	4e\	-ta
=32	=32	=32	=32	=32	=32
2G\	mun-	2c\	mun-	2e\	mun-
!LO:TX:b:t=Seque dona nobis	!	!LO:TX:b:t=Seque dona nobis	!	!	!
2G\	-di	2B\	-di	2d\	-di
==	==	==	==	==	==
*-	*-	*-	*-	*-	*-
!!!system-decoration: [(s1,s2,s3)]
!!!ENC: Kamil Watkowski
!!!END: 2021-08-06
